assets/img/redom.svg

<?xml version="1.0" encoding="UTF-8"?>
<svg width="143px" height="129px" viewBox="0 0 143 129" version="1.1" xmlns="http://www.w3.org/2000/svg" xmlns:xlink="http://www.w3.org/1999/xlink">
    <!-- Generator: Sketch 40.3 (33839) - http://www.bohemiancoding.com/sketch -->
    <title>REDOM</title>
    <desc>Created with Sketch.</desc>
    <defs></defs>
    <g id="Page-1" stroke="none" stroke-width="1" fill="none" fill-rule="evenodd">
        <path d="M125,75 L137.5,100 L112.5,100 L125,75 Z M125,25 L137.5,50 L112.5,50 L125,25 Z M100,75 L112.5,100 L87.5,100 L100,75 Z M112.5,50 L125,75 L100,75 L112.5,50 Z M12.5,50 L25,75 L0,75 L12.5,50 Z M37.5,0 L50,25 L25,25 L37.5,0 Z M12.5,0 L25,25 L0,25 L12.5,0 Z M25,25 L37.5,50 L12.5,50 L25,25 Z M50,75 L62.5,100 L37.5,100 L50,75 Z M62.5,50 L75,75 L50,75 L62.5,50 Z M75,25 L87.5,50 L62.5,50 L75,25 Z M87.5,50 L100,75 L75,75 L87.5,50 Z" id="Combined-Shape" fill="#E8DC64"></path>
        <path d="M25,75 L37.5,50 L12.5,50 L25,75 Z M50,25 L62.5,0 L37.5,0 L50,25 Z M25,25 L37.5,0 L12.5,0 L25,25 Z M37.5,50 L50,25 L25,25 L37.5,50 Z M12.5,50 L25,25 L0,25 L12.5,50 Z M62.5,100 L75,75 L50,75 L62.5,100 Z M100,75 L112.5,50 L87.5,50 L100,75 Z M112.5,100 L125,75 L100,75 L112.5,100 Z M125,75 L137.5,50 L112.5,50 L125,75 Z M125,25 L137.5,0 L112.5,0 L125,25 Z M12.5,100 L25,75 L0,75 L12.5,100 Z M87.5,50 L100,25 L75,25 L87.5,50 Z" id="Combined-Shape" fill="#FDF06F"></path>
        <path d="M25,75 L37.5,100 L12.5,100 L25,75 Z M75,75 L87.5,100 L62.5,100 L75,75 Z M37.5,50 L50,75 L25,75 L37.5,50 Z M50,25 L62.5,50 L37.5,50 L50,25 Z M87.5,0 L100,25 L75,25 L87.5,0 Z M112.5,0 L125,25 L100,25 L112.5,0 Z M100,25 L112.5,50 L87.5,50 L100,25 Z M62.5,0 L75,25 L50,25 L62.5,0 Z M87.5,50 L100,75 L75,75 L87.5,50 Z" id="Combined-Shape" fill="#BA152B"></path>
        <path d="M100,25 L112.5,0 L87.5,0 L100,25 Z M37.5,100 L50,75 L25,75 L37.5,100 Z M50,75 L62.5,50 L37.5,50 L50,75 Z M75,25 L87.5,0 L62.5,0 L75,25 Z M87.5,100 L100,75 L75,75 L87.5,100 Z M112.5,50 L125,25 L100,25 L112.5,50 Z M75,75 L87.5,50 L62.5,50 L75,75 Z M62.5,50 L75,25 L50,25 L62.5,50 Z" id="Combined-Shape" fill="#D31B33"></path>
        <path d="M21.781,104.669 C23.5410088,104.669 24.9984942,104.855998 26.1535,105.23 C27.3085058,105.604002 28.2269966,106.131997 28.909,106.814 C29.5910034,107.496003 30.0694986,108.298995 30.3445,109.223 C30.6195014,110.147005 30.757,111.169994 30.757,112.292 C30.757,113.832008 30.4325032,115.206994 29.7835,116.417 C29.1344968,117.627006 28.0180079,118.539997 26.434,119.156 L31.252,128 L25.609,128 L21.286,119.915 L17.458,119.915 L17.458,128 L12.244,128 L12.244,104.669 L21.781,104.669 Z M17.458,115.79 L21.22,115.79 C22.0780043,115.79 22.7819972,115.713001 23.332,115.559 C23.8820027,115.404999 24.3219984,115.179501 24.652,114.8825 C24.9820017,114.585499 25.2129993,114.222502 25.345,113.7935 C25.4770007,113.364498 25.543,112.875003 25.543,112.325 C25.543,111.796997 25.4770007,111.318502 25.345,110.8895 C25.2129993,110.460498 24.9820017,110.103001 24.652,109.817 C24.3219984,109.530999 23.8820027,109.311001 23.332,109.157 C22.7819972,109.002999 22.0780043,108.926 21.22,108.926 L17.458,108.926 L17.458,115.79 Z M34.915,128 L34.915,104.669 L51.481,104.669 L51.481,108.959 L40.129,108.959 L40.129,114.074 L49.963,114.074 L49.963,118.397 L40.129,118.397 L40.129,123.677 L51.481,123.677 L51.481,128 L34.915,128 Z M61.447,125.591 C61.447,126.383004 61.2215023,127.042997 60.7705,127.571 C60.3194977,128.099003 59.5770052,128.363 58.543,128.363 C57.5089948,128.363 56.7720022,128.104503 56.332,127.5875 C55.8919978,127.070497 55.672,126.405004 55.672,125.591 C55.672,124.820996 55.8919978,124.177503 56.332,123.6605 C56.7720022,123.143497 57.5089948,122.885 58.543,122.885 C59.5770052,122.885 60.3194977,123.143497 60.7705,123.6605 C61.2215023,124.177503 61.447,124.820996 61.447,125.591 L61.447,125.591 Z M61.447,113.876 C61.447,114.668004 61.2215023,115.327997 60.7705,115.856 C60.3194977,116.384003 59.5770052,116.648 58.543,116.648 C57.5089948,116.648 56.7720022,116.395003 56.332,115.889 C55.8919978,115.382997 55.672,114.712004 55.672,113.876 C55.672,113.105996 55.8919978,112.462503 56.332,111.9455 C56.7720022,111.428497 57.5089948,111.17 58.543,111.17 C59.5770052,111.17 60.3194977,111.428497 60.7705,111.9455 C61.2215023,112.462503 61.447,113.105996 61.447,113.876 L61.447,113.876 Z M65.968,104.669 L74.449,104.669 C76.6710111,104.669 78.5189926,104.971497 79.993,105.5765 C81.4670074,106.181503 82.6439956,107.011995 83.524,108.068 C84.4040044,109.124005 85.0309981,110.361493 85.405,111.7805 C85.7790019,113.199507 85.966,114.733992 85.966,116.384 C85.966,117.990008 85.7735019,119.496993 85.3885,120.905 C85.0034981,122.313007 84.3655045,123.544995 83.4745,124.601 C82.5834955,125.657005 81.4010074,126.487497 79.927,127.0925 C78.4529926,127.697503 76.6270109,128 74.449,128 L65.968,128 L65.968,104.669 Z M75.208,123.677 C76.198005,123.677 77.0449965,123.495502 77.749,123.1325 C78.4530035,122.769498 79.0249978,122.258003 79.465,121.598 C79.9050022,120.937997 80.229499,120.162504 80.4385,119.2715 C80.647501,118.380496 80.752,117.407005 80.752,116.351 C80.752,115.294995 80.653001,114.316005 80.455,113.414 C80.256999,112.511995 79.9380022,111.731003 79.498,111.071 C79.0579978,110.410997 78.4805036,109.894002 77.7655,109.52 C77.0504964,109.145998 76.1760052,108.959 75.142,108.959 L71.182,108.959 L71.182,123.677 L75.208,123.677 Z M99.892,128.363 C98.087991,128.363 96.5040068,128.077003 95.14,127.505 C93.7759932,126.932997 92.6320046,126.130005 91.708,125.096 C90.7839954,124.061995 90.0855024,122.813507 89.6125,121.3505 C89.1394976,119.887493 88.903,118.254009 88.903,116.45 C88.903,114.601991 89.1449976,112.930007 89.629,111.434 C90.1130024,109.937993 90.8279953,108.662005 91.774,107.606 C92.7200047,106.549995 93.891493,105.736003 95.2885,105.164 C96.685507,104.591997 98.285991,104.306 100.09,104.306 C101.894009,104.306 103.483493,104.586497 104.8585,105.1475 C106.233507,105.708503 107.388495,106.511495 108.3235,107.5565 C109.258505,108.601505 109.967998,109.855493 110.452,111.3185 C110.936002,112.781507 111.178,114.414991 111.178,116.219 C111.178,118.023009 110.936002,119.672993 110.452,121.169 C109.967998,122.665007 109.247505,123.946495 108.2905,125.0135 C107.333495,126.080505 106.156507,126.905497 104.7595,127.4885 C103.362493,128.071503 101.740009,128.363 99.892,128.363 L99.892,128.363 Z M100.09,124.073 C101.938009,124.073 103.378995,123.424006 104.413,122.126 C105.447005,120.827994 105.964,118.881013 105.964,116.285 C105.964,113.732987 105.452505,111.813506 104.4295,110.5265 C103.406495,109.239494 101.960009,108.596 100.09,108.596 C98.1759904,108.596 96.7020052,109.250493 95.668,110.5595 C94.6339948,111.868507 94.117,113.787987 94.117,116.318 C94.117,118.892013 94.6449947,120.827994 95.701,122.126 C96.7570053,123.424006 98.2199906,124.073 100.09,124.073 L100.09,124.073 Z M121.936,104.669 L127.381,117.935 L132.826,104.669 L138.733,104.669 L140.548,128 L135.301,128 L134.245,114.536 L134.212,112.094 L129.196,123.842 L125.566,123.842 L120.583,112.127 L120.517,114.503 L119.494,128 L114.214,128 L116.029,104.669 L121.936,104.669 Z" id="RE:DOM" fill="#222222"></path>
    </g>
</svg>

<svg xmlns="http://www.w3.org/2000/svg" width="143" height="129"><title>REDOM</title><desc>Created with Sketch.</desc><g fill="none"><path id="Combined-Shape" fill="#E8DC64" d="M125 75l12.5 25h-25L125 75zm0-50l12.5 25h-25L125 25zm-25 50l12.5 25h-25L100 75zm12.5-25L125 75h-25l12.5-25zm-100 0L25 75H0l12.5-25zm25-50L50 25H25L37.5 0zm-25 0L25 25H0L12.5 0zM25 25l12.5 25h-25L25 25zm25 50l12.5 25h-25L50 75zm12.5-25L75 75H50l12.5-25zM75 25l12.5 25h-25L75 25zm12.5 25L100 75H75l12.5-25z"/><path id="Combined-Shape" fill="#FDF06F" d="M25 75l12.5-25h-25L25 75zm25-50L62.5 0h-25L50 25zm-25 0L37.5 0h-25L25 25zm12.5 25L50 25H25l12.5 25zm-25 0L25 25H0l12.5 25zm50 50L75 75H50l12.5 25zM100 75l12.5-25h-25L100 75zm12.5 25L125 75h-25l12.5 25zM125 75l12.5-25h-25L125 75zm0-50l12.5-25h-25L125 25zM12.5 100L25 75H0l12.5 25zm75-50L100 25H75l12.5 25z"/><path id="Combined-Shape" fill="#BA152B" d="M25 75l12.5 25h-25L25 75zm50 0l12.5 25h-25L75 75zM37.5 50L50 75H25l12.5-25zM50 25l12.5 25h-25L50 25zM87.5 0L100 25H75L87.5 0zm25 0L125 25h-25l12.5-25zM100 25l12.5 25h-25L100 25zM62.5 0L75 25H50L62.5 0zm25 50L100 75H75l12.5-25z"/><path fill="#D31B33" d="M100 25l12.5-25h-25L100 25zm-62.5 75L50 75H25l12.5 25zM50 75l12.5-25h-25L50 75zm25-50L87.5 0h-25L75 25zm12.5 75L100 75H75l12.5 25zm25-50L125 25h-25l12.5 25zM75 75l12.5-25h-25L75 75zM62.5 50L75 25H50l12.5 25z"/><path fill="#222" d="M21.78 104.67c1.76 0 3.22.2 4.37.56 1.16.37 2.08.9 2.76 1.58.7.7 1.17 1.5 1.44 2.42.28.93.42 1.95.42 3.07 0 1.53-.33 2.9-.98 4.12-.65 1.2-1.76 2.12-3.35 2.74l4.82 8.84H25.6l-4.3-8.08h-3.84V128h-5.22v-23.33h9.54zm-4.32 11.12h3.76c.86 0 1.56-.1 2.1-.24.56-.16 1-.38 1.33-.68.33-.3.56-.66.7-1.1.13-.42.2-.9.2-1.45 0-.53-.07-1-.2-1.44-.14-.44-.37-.8-.7-1.08-.33-.3-.77-.5-1.32-.66-.55-.16-1.25-.23-2.1-.23h-3.77v6.86zM34.9 128l.02-23.33h16.56v4.3H40.13v5.1h9.83v4.33h-9.83v5.28h11.35V128H34.92zm26.55-2.4c0 .78-.23 1.44-.68 1.97-.45.53-1.2.8-2.23.8s-1.77-.27-2.2-.78c-.45-.53-.67-1.2-.67-2 0-.78.22-1.42.66-1.94.44-.52 1.18-.77 2.2-.77 1.05-.02 1.8.24 2.24.76.45.52.68 1.16.68 1.93zm0-11.72c0 .8-.23 1.45-.68 1.98-.45.52-1.2.8-2.23.8s-1.77-.26-2.2-.77c-.45-.52-.67-1.2-.67-2.02 0-.77.22-1.42.66-1.93.44-.52 1.18-.78 2.2-.78 1.05 0 1.8.26 2.24.78.45.5.68 1.16.68 1.93zm4.52-9.2h8.48c2.22 0 4.07.3 5.54.9 1.47.6 2.64 1.43 3.52 2.5.88 1.04 1.5 2.28 1.9 3.7.36 1.42.55 2.95.55 4.6 0 1.6-.2 3.12-.58 4.53-.4 1.4-1.03 2.64-1.93 3.7-.9 1.06-2.07 1.9-3.54 2.5-1.48.6-3.3.9-5.48.9h-8.48v-23.33zm9.24 19c1 0 1.84-.18 2.55-.55.7-.36 1.27-.87 1.72-1.53.44-.66.76-1.44.97-2.33.2-.9.3-1.86.3-2.92 0-1.06-.1-2.03-.28-2.94-.2-.9-.52-1.67-.96-2.33-.44-.66-1.02-1.18-1.73-1.55-.72-.37-1.6-.56-2.63-.56h-3.96v14.72h4.03zm24.7 4.68c-1.8 0-3.4-.28-4.76-.86-1.36-.57-2.5-1.37-3.43-2.4-.92-1.04-1.6-2.3-2.1-3.75-.46-1.46-.7-3.1-.7-4.9 0-1.85.24-3.52.73-5.02.48-1.5 1.2-2.77 2.14-3.82.95-1.05 2.12-1.86 3.52-2.44 1.4-.57 3-.85 4.8-.85 1.8 0 3.38.3 4.76.85 1.37.56 2.53 1.36 3.46 2.4.94 1.05 1.65 2.3 2.13 3.77.5 1.46.73 3.1.73 4.9 0 1.8-.24 3.45-.73 4.95-.48 1.5-1.2 2.78-2.16 3.84-.97 1.08-2.14 1.9-3.54 2.5-1.4.57-3.02.86-4.87.86zm.2-4.3c1.84 0 3.28-.64 4.3-1.93 1.05-1.3 1.56-3.25 1.56-5.84 0-2.57-.5-4.5-1.53-5.77-1.02-1.3-2.47-1.93-4.34-1.93-1.92 0-3.4.65-4.43 1.96-1.04 1.3-1.55 3.23-1.55 5.76 0 2.57.52 4.5 1.58 5.8 1.06 1.3 2.52 1.95 4.4 1.95zm21.84-19.4l5.44 13.28 5.45-13.27h5.9l1.82 23.33h-5.25l-1.06-13.46-.03-2.45-5 11.74h-3.63l-5-11.7-.05 2.36-1.03 13.5h-5.3l1.83-23.33h5.9z"/></g></svg>
